X: 43435
T: Y Lili
R: hornpipe
M: 4/4
K: Dmajor
|:dcdA B2AG|FDFA E4|dcdA B2AG|FGFE D4:|
|:FADA FADA|GBEB GBEB|FADA FADA|FGFE D4:|
|:fdfa ecea|fdfae cea|fdfa e2AB|AGFE D4:|

